lib/brands/logos/semantic-web.svg

<svg xmlns="http://www.w3.org/2000/svg" fill="none" aria-hidden="true" viewBox="0 0 182 64"><g id="Semantic Web"><g id="Group"><path id="Vector" fill="#015A9C" d="M159.792 12.6578C159.424 13.088 159.24 13.5988 159.24 14.1914C159.24 14.5925 159.325 14.9578 159.491 15.2873C159.658 15.6169 159.886 15.8768 160.174 16.0683C160.462 16.2594 160.782 16.3546 161.133 16.3546C161.651 16.3546 162.098 16.1456 162.474 15.7246C162.849 15.3039 163.038 14.7927 163.038 14.1914C163.038 13.5988 162.849 13.088 162.474 12.6578C162.098 12.228 161.651 12.0133 161.133 12.0133C160.607 12.0133 160.16 12.228 159.792 12.6578ZM61.5443 12.7902C60.5993 13.3068 59.8967 13.9989 59.4375 14.8653C58.9777 15.7316 58.7477 16.7017 58.7477 17.774C58.7477 18.8848 58.975 19.8467 59.4301 20.6611C59.8852 21.4748 60.471 22.1524 61.1885 22.6929C61.9063 23.2338 62.7406 23.7342 63.6924 24.1937C64.5611 24.5867 65.2225 24.9666 65.678 25.3346C66.1328 25.7033 66.3607 26.1554 66.3607 26.6912C66.3607 26.9883 66.228 27.307 65.9643 27.6463C65.7009 27.9863 65.1205 28.1558 64.2245 28.1558C63.2531 28.1558 62.3415 27.9502 61.4913 27.5376C60.6408 27.1257 59.7765 26.6078 58.8973 25.9849V30.8805C59.8336 31.3515 60.734 31.7077 61.5997 31.9481C62.4651 32.1882 63.1586 32.3344 63.6809 32.3874C64.2035 32.4394 64.6448 32.4664 65.0041 32.4664C66.2918 32.4664 67.433 32.2236 68.428 31.7398C69.4223 31.2546 70.1975 30.5564 70.7539 29.6444C71.31 28.7328 71.5882 27.6528 71.5882 26.4042C71.5882 25.2846 71.3613 24.35 70.9065 23.5991C70.4517 22.8476 69.8234 22.1848 69.0222 21.6102C68.2207 21.0362 67.1521 20.3906 65.8167 19.6721C65.0581 19.2609 64.531 18.9115 64.2356 18.6238C63.9409 18.3368 63.793 17.9972 63.793 17.6045C63.793 17.1835 63.9388 16.8293 64.2322 16.542C64.525 16.255 64.9976 16.1111 65.6513 16.1111C66.6476 16.1111 67.5832 16.3414 68.4584 16.8016C69.3328 17.2611 70.1263 17.7834 70.838 18.3682V13.6964C70.6374 13.5424 70.2694 13.3318 69.7343 13.0637C69.1988 12.7956 68.5198 12.5535 67.696 12.3378C66.8722 12.1224 65.9758 12.0143 65.0061 12.0143C63.6427 12.0143 62.4894 12.2736 61.5443 12.7902ZM151.5 13.2055L145.442 20.2529V21.1544H147.489V26.9974C147.489 30.6435 149.114 32.4664 152.365 32.4664C153.118 32.4664 153.907 32.3462 154.731 32.1058C155.556 31.8657 156.202 31.6155 156.671 31.3556V27.3043C155.499 27.9944 154.554 28.3395 153.834 28.3395C153.281 28.3395 152.87 28.2274 152.598 28.0022C152.325 27.777 152.16 27.4971 152.101 27.1615C152.043 26.8266 152.013 26.386 152.013 25.8393V21.155H156.332V17.5775H152.013V13.2055H151.5ZM105.222 18.0532C104.44 18.5337 103.687 19.2437 102.96 20.185C102.776 19.6762 102.528 19.2299 102.218 18.8456C101.908 18.4614 101.561 18.1589 101.18 17.9381C100.799 17.7176 100.412 17.5613 100.017 17.4701C99.6228 17.3793 99.2085 17.333 98.7726 17.333C97.8506 17.333 97.0372 17.5197 96.3329 17.8945C95.6293 18.2693 94.9375 18.8699 94.2585 19.6954V17.5775H89.7336V32.2226H94.2585V23.6356C94.3257 23.5397 94.4851 23.3057 94.7369 22.932C94.9885 22.5589 95.2025 22.2766 95.3788 22.0849C95.5543 21.8938 95.7833 21.7209 96.0642 21.5676C96.3454 21.4147 96.653 21.338 96.9886 21.338C97.6929 21.338 98.1835 21.6061 98.4603 22.1426C98.7375 22.6788 98.876 23.4394 98.876 24.425V32.2226H103.401V23.6356C103.8 22.9755 104.2 22.4276 104.6 21.992C105 21.5561 105.513 21.3384 106.138 21.3384C106.778 21.3384 107.247 21.5943 107.543 22.1065C107.838 22.6183 107.987 23.3915 107.987 24.425V32.2219H112.512H112.511V23.2963C112.511 22.0319 112.345 20.9568 112.015 20.0699C111.685 19.1843 111.175 18.5063 110.486 18.0363C109.797 17.5674 108.942 17.3327 107.923 17.3327C106.904 17.3327 106.003 17.5734 105.222 18.0532ZM169.565 18.1373C168.601 18.6734 167.865 19.3386 167.357 20.133C166.848 20.9281 166.492 21.7513 166.288 22.6028C166.083 23.455 165.981 24.2065 165.981 24.8572C165.981 25.5081 166.081 26.2593 166.281 27.1112C166.481 27.9634 166.842 28.7983 167.363 29.6164C167.884 30.4355 168.626 31.1148 169.589 31.6554C170.552 32.1963 171.733 32.4664 173.131 32.4664C173.75 32.4664 174.321 32.4211 174.844 32.3296C175.367 32.2381 175.838 32.1227 176.257 31.9832C176.675 31.8438 177.073 31.6922 177.449 31.5281H177.45V27.4478C176.62 27.7351 175.917 27.9559 175.34 28.1092C174.763 28.2632 174.248 28.3395 173.796 28.3395C173.319 28.3395 172.842 28.2156 172.365 27.9681C171.888 27.7203 171.494 27.333 171.185 26.805C170.875 26.2769 170.72 25.628 170.72 24.8572C170.72 23.6967 171.032 22.8405 171.656 22.2885C172.279 21.7368 172.992 21.4606 173.796 21.4606C174.625 21.4606 175.776 21.7293 177.249 22.2658V18.1845C176.638 17.9249 176.036 17.7186 175.441 17.5647C174.847 17.4104 174.077 17.333 173.131 17.333C171.716 17.333 170.528 17.6011 169.565 18.1373ZM136.887 17.8591C136.171 18.2095 135.456 18.8223 134.744 19.6954V17.5775H130.219V32.2219H134.744V23.6349C134.903 23.3773 135.058 23.1332 135.209 22.9033C135.36 22.6734 135.547 22.434 135.769 22.1851C135.991 21.9363 136.243 21.7327 136.524 21.5747C136.805 21.4174 137.13 21.338 137.499 21.338C138.279 21.338 138.784 21.6372 139.015 22.2355C139.245 22.8337 139.36 23.5347 139.36 24.3389V24.6404V32.2219H143.885H143.885V23.6275C143.885 19.4314 142.35 17.333 139.283 17.333C138.403 17.333 137.604 17.5083 136.887 17.8591ZM77.1669 18.302C76.0605 18.9483 75.2326 19.8389 74.684 20.973C74.1346 22.1072 73.8601 23.3922 73.8601 24.8281C73.8601 26.283 74.1346 27.5846 74.684 28.7332C75.2326 29.8818 76.0605 30.7917 77.1669 31.4612C78.2737 32.1314 79.6141 32.4664 81.1905 32.4664C82.648 32.4664 83.849 32.3053 84.792 31.9836C85.7353 31.6618 86.5375 31.3042 87.1996 30.9096V27.7162C85.3552 28.6825 83.6704 29.1647 82.145 29.1647C81.2729 29.1647 80.4933 28.8858 79.8058 28.3267C79.1188 27.7686 78.6869 27.0487 78.511 26.1682H87.5268H87.5265V25.1323C87.5265 23.2899 87.2145 21.7857 86.5899 20.6209C85.9649 19.4557 85.1695 18.616 84.2011 18.1028C83.2331 17.59 82.2297 17.333 81.1905 17.333C79.6141 17.333 78.2737 17.6561 77.1669 18.302ZM79.0836 21.3667C79.5486 20.7975 80.158 20.5122 80.9129 20.5122C81.6763 20.5122 82.2608 20.7924 82.6673 21.3525C83.0738 21.913 83.277 22.6622 83.277 23.5998H78.3854C78.3854 22.6811 78.6184 21.9366 79.0836 21.3667ZM118.954 17.5508C118.243 17.6953 117.561 17.9134 116.909 18.2065C116.257 18.4999 115.65 18.877 115.09 19.3382V23.3098C115.792 22.5241 116.564 21.8826 117.408 21.3833C118.251 20.8856 119.165 20.6361 120.15 20.6361C120.986 20.6361 121.529 20.837 121.779 21.2381C122.03 21.6395 122.155 22.1946 122.155 22.9019C121.98 23.0069 121.813 23.0937 121.654 23.1599C121.496 23.2264 121.255 23.3203 120.934 23.4394C120.613 23.559 120.138 23.7335 119.512 23.9628C118.41 24.3639 117.524 24.7515 116.857 25.1239C116.188 25.497 115.656 25.9771 115.26 26.5656C114.863 27.1541 114.665 27.8972 114.665 28.796C114.665 29.3885 114.779 29.9645 115.009 30.5236C115.239 31.0831 115.639 31.547 116.212 31.9147C116.784 32.2827 117.533 32.4671 118.461 32.4671C119.421 32.4671 120.197 32.3205 120.791 32.0295C121.384 31.7388 121.923 31.3677 122.407 30.9183C122.532 31.3488 122.741 31.7148 123.035 32.0156C123.328 32.3158 123.848 32.4671 124.594 32.4671C125.381 32.4671 126.055 32.3752 126.616 32.1946C127.177 32.0133 127.789 31.7736 128.451 31.4775H128.451V28.7659C127.965 29.0445 127.58 29.1832 127.296 29.1832C127.061 29.1832 126.9 29.0516 126.812 28.7879C126.725 28.5249 126.68 28.1251 126.68 27.5889V21.9451C126.68 20.5091 126.214 19.3818 125.282 18.5627C124.349 17.7439 122.959 17.3344 121.111 17.3344C120.384 17.3344 119.665 17.4066 118.954 17.5508ZM119.438 29.2974C119.191 29.0394 119.068 28.6657 119.068 28.1774C119.068 27.4981 119.315 26.9603 119.808 26.5625C120.302 26.1662 121.085 25.7191 122.156 25.2211V28.6802C121.838 28.958 121.525 29.1951 121.221 29.3905C120.915 29.5867 120.608 29.6846 120.298 29.6846C119.971 29.6846 119.685 29.5556 119.438 29.2974ZM158.877 32.2219H163.401V17.5775H158.877V32.2219ZM103.821 36.3201V56.2539H108.346V54.9169C108.639 55.2049 108.921 55.4517 109.193 55.6576C109.465 55.8643 109.845 56.056 110.335 56.233C110.824 56.4099 111.404 56.499 112.074 56.499C113.002 56.499 113.915 56.2357 114.81 55.7093C115.706 55.1823 116.441 54.3601 117.019 53.2446C117.596 52.1287 117.886 50.7231 117.886 49.0276C117.886 48.0329 117.764 47.0828 117.521 46.179C117.278 45.2748 116.907 44.4597 116.41 43.7328C115.912 43.0059 115.269 42.4296 114.483 42.0041C113.697 41.5784 112.789 41.365 111.76 41.365C110.99 41.365 110.312 41.4774 109.727 41.702C109.141 41.9265 108.681 42.1871 108.346 42.4832V36.3201H103.821ZM108.347 51.5831V45.998C109.195 45.3764 109.96 45.0648 110.64 45.0648C111.32 45.0648 111.908 45.3933 112.404 46.049C112.899 46.704 113.147 47.6588 113.147 48.9124C113.147 50.3389 112.869 51.312 112.315 51.834C111.761 52.3556 111.203 52.6163 110.64 52.6163C109.749 52.6163 108.985 52.2722 108.347 51.5831ZM82.2452 36.3211L78.4661 47.3586L74.399 36.3211H70.6449L66.5018 47.3586L62.8854 36.3211H57.4499L64.8319 56.4994H67.8959L72.5282 44.7596L77.0481 56.4994H80.0864L87.6186 36.3211H82.2452ZM90.9214 42.3347C89.8149 42.9806 88.9874 43.8712 88.4384 45.0054C87.8891 46.1395 87.6146 47.4245 87.6146 48.8604C87.6146 50.3156 87.8891 51.6169 88.4384 52.7655C88.9874 53.9141 89.8149 54.824 90.9214 55.4936C92.0281 56.1638 93.3689 56.499 94.9449 56.499C96.4025 56.499 97.6034 56.3383 98.5464 56.0162C99.4898 55.6944 100.292 55.3369 100.954 54.9419V51.7492C99.1096 52.7152 97.4248 53.1977 95.8991 53.1977C95.0276 53.1977 94.248 52.9188 93.5606 52.3597C92.8732 51.8015 92.4414 51.0817 92.2658 50.2015H101.282H101.281V49.165C101.281 47.3229 100.969 45.8187 100.344 44.6532C99.7197 43.488 98.9239 42.6487 97.9556 42.1355C96.9876 41.6223 95.9838 41.3653 94.9449 41.3653C93.3689 41.3653 92.0281 41.6891 90.9214 42.3347ZM92.8378 45.3997C93.303 44.8305 93.9128 44.5452 94.6674 44.5452C95.4304 44.5452 96.0152 44.8254 96.4217 45.3855C96.8282 45.946 97.0315 46.6945 97.0315 47.6328H92.1399C92.1399 46.7141 92.3728 45.9696 92.8378 45.3997Z"/><g id="Group_2"><path id="Vector_2" fill="#86BA0C" d="M29.9604 11.2007C28.2668 10.4372 27.861 10.2186 27.7911 10.1608L5.62215 19.2524L27.8225 30.0737C27.8225 30.0737 29.5374 29.3548 32.2982 28.0126C45.8502 21.4311 48.7877 5.32166 48.7877 5.32166C48.7877 5.32166 45.4175 18.1652 29.9604 11.2007ZM27.7911 10.1608L27.8225 10.148C27.8225 10.148 27.8009 10.1419 27.7881 10.1419C27.7776 10.1419 27.7729 10.146 27.7911 10.1608Z"/><path id="Vector_3" fill="#EF7C00" d="M4.55 47.1776L25.2355 58.3776V34.5948L4.55 24.0792V47.1776Z"/><path id="Vector_4" fill="#BD1789" d="M29.8893 34.596V58.3784L50.5751 47.1788V24.0804L29.8893 34.596Z"/></g></g></g></svg>

<svg xmlns="http://www.w3.org/2000/svg" fill="none" aria-hidden="true" viewBox="0 0 182 64"><path fill="#015A9C" d="M159.792 12.658a2.28 2.28 0 0 0-.551 1.533c0 .401.084.767.25 1.096.168.33.395.59.683.781a1.7 1.7 0 0 0 .959.287c.518 0 .965-.21 1.341-.63.376-.421.564-.932.564-1.534 0-.592-.188-1.103-.564-1.533-.376-.43-.823-.645-1.341-.645-.526 0-.973.215-1.341.645Zm-98.248.132c-.945.517-1.647 1.209-2.106 2.075-.46.867-.69 1.837-.69 2.909 0 1.11.227 2.073.682 2.887a6.453 6.453 0 0 0 1.758 2.032 15.02 15.02 0 0 0 2.504 1.5c.87.394 1.53.773 1.986 1.141.455.37.683.821.683 1.357 0 .297-.133.616-.397.955-.263.34-.843.51-1.74.51a6.18 6.18 0 0 1-2.733-.618c-.85-.412-1.714-.93-2.594-1.553v4.896a14.93 14.93 0 0 0 2.703 1.067c.865.24 1.559.386 2.081.44.523.051.964.078 1.323.078 1.288 0 2.43-.242 3.424-.726.994-.485 1.77-1.184 2.326-2.096.556-.911.834-1.991.834-3.24 0-1.12-.227-2.054-.681-2.805-.455-.752-1.084-1.414-1.885-1.989-.801-.574-1.87-1.22-3.205-1.938-.759-.411-1.286-.76-1.581-1.048a1.375 1.375 0 0 1-.443-1.02c0-.42.146-.775.44-1.062.292-.287.765-.43 1.418-.43.997 0 1.932.23 2.807.69.875.46 1.668.981 2.38 1.566v-4.672c-.2-.154-.569-.364-1.104-.632-.535-.268-1.214-.51-2.038-.726a10.612 10.612 0 0 0-2.69-.324c-1.363 0-2.517.26-3.462.776Zm89.956.415-6.058 7.048v.901h2.047v5.843c0 3.646 1.625 5.47 4.876 5.47.753 0 1.542-.12 2.366-.361.825-.24 1.471-.49 1.941-.75v-4.052c-1.173.69-2.118 1.035-2.838 1.035-.553 0-.964-.112-1.236-.337a1.367 1.367 0 0 1-.497-.84 8.054 8.054 0 0 1-.087-1.323v-4.684h4.319v-3.578h-4.319v-4.372h-.514Zm-46.278 4.848c-.781.48-1.535 1.19-2.262 2.132a4.61 4.61 0 0 0-.742-1.34 3.746 3.746 0 0 0-1.038-.907 4.203 4.203 0 0 0-1.163-.468 5.518 5.518 0 0 0-1.244-.137c-.922 0-1.736.187-2.44.562-.704.374-1.395.975-2.074 1.8v-2.118h-4.525v14.645h4.525v-8.586c.067-.096.226-.33.478-.704.252-.373.466-.655.642-.847.175-.191.404-.364.685-.517.282-.153.59-.23.925-.23.704 0 1.194.268 1.471.804.278.537.416 1.297.416 2.283v7.797h4.525v-8.586c.399-.66.799-1.209 1.199-1.644.4-.436.913-.654 1.538-.654.64 0 1.109.256 1.405.768.295.512.444 1.285.444 2.319v7.797h4.525-.001v-8.926c0-1.264-.165-2.34-.496-3.226-.33-.886-.84-1.564-1.529-2.034-.689-.469-1.544-.703-2.563-.703-1.019 0-1.92.24-2.701.72Zm64.343.084c-.964.536-1.7 1.201-2.208 1.996a8.04 8.04 0 0 0-1.069 2.47c-.205.852-.307 1.603-.307 2.254s.1 1.402.3 2.254c.2.852.561 1.687 1.082 2.505.521.82 1.263 1.499 2.226 2.04.963.54 2.144.81 3.542.81a9.962 9.962 0 0 0 3.126-.483c.418-.14.816-.29 1.192-.455h.001v-4.08c-.829.287-1.532.508-2.11.661-.577.154-1.092.23-1.544.23-.477 0-.954-.123-1.431-.371-.477-.248-.871-.635-1.18-1.163-.31-.528-.465-1.177-.465-1.948 0-1.16.312-2.017.936-2.569.623-.551 1.336-.828 2.14-.828.829 0 1.98.27 3.453.806v-4.081a12.846 12.846 0 0 0-1.808-.62c-.594-.155-1.364-.232-2.31-.232-1.415 0-2.603.268-3.566.804Zm-32.678-.278c-.716.35-1.431.963-2.143 1.836v-2.118h-4.525v14.645h4.525v-8.587a31.1 31.1 0 0 1 .465-.732c.152-.23.338-.47.56-.718.222-.249.474-.452.755-.61.281-.158.606-.237.975-.237.78 0 1.285.3 1.516.897.23.599.345 1.3.345 2.104v7.883h4.525v-8.595c0-4.196-1.534-6.294-4.602-6.294-.88 0-1.679.175-2.396.526Zm-59.72.443a6.124 6.124 0 0 0-2.483 2.671c-.55 1.134-.824 2.42-.824 3.855 0 1.455.275 2.756.824 3.905a6.31 6.31 0 0 0 2.483 2.728c1.107.67 2.447 1.005 4.023 1.005 1.458 0 2.66-.16 3.602-.483.943-.321 1.746-.679 2.408-1.073v-3.194c-1.845.966-3.53 1.449-5.055 1.449a3.606 3.606 0 0 1-2.34-.838 3.608 3.608 0 0 1-1.294-2.159h9.016v-1.036c0-1.842-.312-3.346-.937-4.511s-1.42-2.005-2.389-2.518c-.968-.513-1.971-.77-3.01-.77-1.577 0-2.917.323-4.024.969Zm1.917 3.065c.465-.57 1.074-.855 1.829-.855.763 0 1.348.28 1.754.84.407.561.61 1.31.61 2.248h-4.892c0-.919.233-1.663.699-2.233Zm39.87-3.816a9.679 9.679 0 0 0-2.045.655 8.043 8.043 0 0 0-1.819 1.132v3.972a9.796 9.796 0 0 1 2.318-1.927 5.3 5.3 0 0 1 2.743-.747c.835 0 1.378.2 1.628.602.251.402.376.957.376 1.664a3.88 3.88 0 0 1-.501.258c-.158.066-.399.16-.72.28l-1.422.523c-1.102.4-1.988.788-2.655 1.16a4.563 4.563 0 0 0-1.597 1.442c-.397.589-.595 1.332-.595 2.23 0 .593.115 1.17.344 1.729.23.559.63 1.023 1.203 1.39.572.369 1.321.553 2.249.553.96 0 1.736-.146 2.33-.438a6.695 6.695 0 0 0 1.616-1.11c.126.43.335.796.628 1.097.293.3.813.451 1.559.451.787 0 1.461-.092 2.022-.273a18.404 18.404 0 0 0 1.835-.717v-2.711c-.486.278-.871.417-1.155.417-.235 0-.396-.131-.484-.395-.087-.263-.132-.663-.132-1.2v-5.643c0-1.436-.466-2.563-1.398-3.382-.933-.82-2.323-1.229-4.171-1.229-.727 0-1.446.073-2.157.217Zm.484 11.746c-.247-.258-.37-.631-.37-1.12 0-.679.247-1.217.741-1.614.493-.397 1.276-.844 2.347-1.342v3.46a8.042 8.042 0 0 1-.935.71c-.306.196-.613.294-.923.294-.327 0-.613-.13-.86-.388Zm39.439 2.925h4.524V17.577h-4.524v14.645Zm-55.056 4.098v19.934h4.525v-1.337c.293.288.575.535.847.74.272.207.652.399 1.142.576.489.177 1.069.266 1.739.266.929 0 1.841-.263 2.737-.79.895-.527 1.63-1.349 2.208-2.465.577-1.115.867-2.52.867-4.216 0-.995-.122-1.945-.365-2.85a7.954 7.954 0 0 0-1.111-2.445 5.438 5.438 0 0 0-1.927-1.729c-.786-.426-1.694-.64-2.723-.64-.77 0-1.448.113-2.033.338-.586.224-1.046.485-1.381.781V36.32h-4.525Zm4.526 15.263v-5.585c.848-.622 1.613-.933 2.293-.933.68 0 1.268.328 1.764.984.495.655.743 1.61.743 2.863 0 1.427-.277 2.4-.832 2.922-.554.521-1.112.782-1.675.782-.891 0-1.655-.344-2.293-1.033ZM82.245 36.321 78.466 47.36 74.4 36.32h-3.754l-4.144 11.04-3.616-11.04H57.45l7.382 20.18h3.064l4.632-11.74 4.52 11.74h3.038l7.533-20.178h-5.374Zm8.676 6.014a6.123 6.123 0 0 0-2.483 2.67c-.549 1.134-.823 2.42-.823 3.855 0 1.456.274 2.757.824 3.905a6.311 6.311 0 0 0 2.482 2.728c1.107.67 2.448 1.006 4.024 1.006 1.458 0 2.659-.16 3.602-.483.943-.322 1.745-.68 2.407-1.074v-3.193c-1.844.966-3.53 1.449-5.055 1.449a3.606 3.606 0 0 1-2.338-.838 3.605 3.605 0 0 1-1.295-2.159h9.016-.001v-1.036c0-1.842-.312-3.346-.937-4.512-.624-1.165-1.42-2.004-2.388-2.518-.968-.513-1.972-.77-3.011-.77-1.576 0-2.917.324-4.024.97Zm1.917 3.065c.465-.57 1.075-.855 1.83-.855.762 0 1.347.28 1.754.84.406.56.61 1.31.61 2.248H92.14c0-.919.233-1.663.698-2.233Z"/><path fill="#86BA0C" d="M29.96 11.2c-1.693-.763-2.099-.981-2.169-1.04L5.622 19.253l22.2 10.822s1.715-.72 4.476-2.062c13.552-6.58 16.49-22.69 16.49-22.69S45.418 18.165 29.96 11.2Zm-2.169-1.04.032-.012s-.022-.006-.035-.006c-.01 0-.015.004.003.019Z"/><path fill="#EF7C00" d="m4.55 47.178 20.685 11.2V34.595L4.55 24.079v23.099Z"/><path fill="#BD1789" d="M29.89 34.596v23.782l20.685-11.2V24.08L29.89 34.596Z"/></svg>
